assets/images/results/4.svg

<svg width="706" height="30" viewBox="0 0 706 30" fill="none" xmlns="http://www.w3.org/2000/svg">
<rect width="25" height="30" rx="4" fill="#7D9D3B"/>
<path d="M12.9 20.14C12.2 20.1307 11.5793 19.972 11.038 19.664C10.4967 19.356 10.044 18.95 9.68 18.446C9.316 17.942 9.04067 17.4007 8.854 16.822C8.67667 16.234 8.588 15.66 8.588 15.1C8.588 14.5027 8.686 13.9053 8.882 13.308C9.078 12.7107 9.36267 12.1693 9.736 11.684C10.1187 11.1893 10.576 10.7973 11.108 10.508C11.64 10.2093 12.2373 10.06 12.9 10.06C13.6187 10.06 14.244 10.2187 14.776 10.536C15.3173 10.8533 15.77 11.264 16.134 11.768C16.498 12.272 16.7687 12.818 16.946 13.406C17.1327 13.994 17.226 14.5587 17.226 15.1C17.226 15.7067 17.128 16.3087 16.932 16.906C16.736 17.494 16.4467 18.0307 16.064 18.516C15.6907 19.0013 15.238 19.3933 14.706 19.692C14.174 19.9813 13.572 20.1307 12.9 20.14ZM10.534 15.1C10.5433 15.492 10.5947 15.884 10.688 16.276C10.7907 16.6587 10.9353 17.0133 11.122 17.34C11.318 17.6667 11.5653 17.9327 11.864 18.138C12.1627 18.334 12.508 18.432 12.9 18.432C13.32 18.432 13.6793 18.3247 13.978 18.11C14.2767 17.8953 14.5193 17.62 14.706 17.284C14.902 16.948 15.0467 16.5887 15.14 16.206C15.2333 15.8233 15.28 15.4547 15.28 15.1C15.28 14.708 15.2287 14.3207 15.126 13.938C15.0327 13.546 14.8833 13.1867 14.678 12.86C14.482 12.5333 14.2347 12.272 13.936 12.076C13.6467 11.8707 13.3013 11.768 12.9 11.768C12.4893 11.768 12.1347 11.8753 11.836 12.09C11.5373 12.3047 11.29 12.58 11.094 12.916C10.9073 13.252 10.7673 13.6113 10.674 13.994C10.5807 14.3767 10.534 14.7453 10.534 15.1Z" fill="white"/>
<path d="M29 4C29 1.79086 30.7909 0 33 0H48.2692C50.4784 0 52.2692 1.79086 52.2692 4V26C52.2692 28.2091 50.4784 30 48.2692 30H33C30.7909 30 29 28.2091 29 26V4Z" fill="white" fill-opacity="0.1"/>
<path d="M29 4C29 1.79086 30.7909 0 33 0H48.2692C50.4784 0 52.2692 1.79086 52.2692 4V26C52.2692 28.2091 50.4784 30 48.2692 30H33C30.7909 30 29 28.2091 29 26V4Z" fill="url(#paint0_linear_13_214)"/>
<path d="M56.2692 4C56.2692 1.79086 58.0601 0 60.2692 0H75.5385C77.7476 0 79.5385 1.79086 79.5385 4V26C79.5385 28.2091 77.7476 30 75.5385 30H60.2692C58.0601 30 56.2692 28.2091 56.2692 26V4Z" fill="white" fill-opacity="0.1"/>
<path d="M56.2692 4C56.2692 1.79086 58.0601 0 60.2692 0H75.5385C77.7476 0 79.5385 1.79086 79.5385 4V26C79.5385 28.2091 77.7476 30 75.5385 30H60.2692C58.0601 30 56.2692 28.2091 56.2692 26V4Z" fill="url(#paint1_linear_13_214)"/>
<path d="M83.5385 4C83.5385 1.79086 85.3293 0 87.5385 0H102.808C105.017 0 106.808 1.79086 106.808 4V26C106.808 28.2091 105.017 30 102.808 30H87.5385C85.3293 30 83.5385 28.2091 83.5385 26V4Z" fill="white" fill-opacity="0.1"/>
<path d="M83.5385 4C83.5385 1.79086 85.3293 0 87.5385 0H102.808C105.017 0 106.808 1.79086 106.808 4V26C106.808 28.2091 105.017 30 102.808 30H87.5385C85.3293 30 83.5385 28.2091 83.5385 26V4Z" fill="url(#paint2_linear_13_214)"/>
<path d="M110.808 4C110.808 1.79086 112.599 0 114.808 0H130.077C132.286 0 134.077 1.79086 134.077 4V26C134.077 28.2091 132.286 30 130.077 30H114.808C112.599 30 110.808 28.2091 110.808 26V4Z" fill="white" fill-opacity="0.1"/>
<path d="M110.808 4C110.808 1.79086 112.599 0 114.808 0H130.077C132.286 0 134.077 1.79086 134.077 4V26C134.077 28.2091 132.286 30 130.077 30H114.808C112.599 30 110.808 28.2091 110.808 26V4Z" fill="url(#paint3_linear_13_214)"/>
<rect x="138.077" width="25" height="30" rx="4" fill="#38BCE2"/>
<path d="M149.629 18.306V20H144.001V18.306H145.933V11.838C145.858 11.95 145.732 12.076 145.555 12.216C145.387 12.3467 145.191 12.4773 144.967 12.608C144.752 12.7293 144.528 12.832 144.295 12.916C144.071 13 143.866 13.042 143.679 13.042V11.306C143.931 11.306 144.188 11.2407 144.449 11.11C144.71 10.9793 144.953 10.83 145.177 10.662C145.401 10.494 145.578 10.34 145.709 10.2C145.849 10.0507 145.924 9.97133 145.933 9.962H147.851V18.306H149.629ZM154.84 20.14C154.14 20.1307 153.52 19.972 152.978 19.664C152.437 19.356 151.984 18.95 151.62 18.446C151.256 17.942 150.981 17.4007 150.794 16.822C150.617 16.234 150.528 15.66 150.528 15.1C150.528 14.5027 150.626 13.9053 150.822 13.308C151.018 12.7107 151.303 12.1693 151.676 11.684C152.059 11.1893 152.516 10.7973 153.048 10.508C153.58 10.2093 154.178 10.06 154.84 10.06C155.559 10.06 156.184 10.2187 156.716 10.536C157.258 10.8533 157.71 11.264 158.074 11.768C158.438 12.272 158.709 12.818 158.886 13.406C159.073 13.994 159.166 14.5587 159.166 15.1C159.166 15.7067 159.068 16.3087 158.872 16.906C158.676 17.494 158.387 18.0307 158.004 18.516C157.631 19.0013 157.178 19.3933 156.646 19.692C156.114 19.9813 155.512 20.1307 154.84 20.14ZM152.474 15.1C152.484 15.492 152.535 15.884 152.628 16.276C152.731 16.6587 152.876 17.0133 153.062 17.34C153.258 17.6667 153.506 17.9327 153.804 18.138C154.103 18.334 154.448 18.432 154.84 18.432C155.26 18.432 155.62 18.3247 155.918 18.11C156.217 17.8953 156.46 17.62 156.646 17.284C156.842 16.948 156.987 16.5887 157.08 16.206C157.174 15.8233 157.22 15.4547 157.22 15.1C157.22 14.708 157.169 14.3207 157.066 13.938C156.973 13.546 156.824 13.1867 156.618 12.86C156.422 12.5333 156.175 12.272 155.876 12.076C155.587 11.8707 155.242 11.768 154.84 11.768C154.43 11.768 154.075 11.8753 153.776 12.09C153.478 12.3047 153.23 12.58 153.034 12.916C152.848 13.252 152.708 13.6113 152.614 13.994C152.521 14.3767 152.474 14.7453 152.474 15.1Z" fill="white"/>
<g opacity="0.1">
<rect x="167.077" width="25" height="30" rx="4" fill="white"/>
</g>
<g opacity="0.1">
<rect x="196.077" width="24" height="30" rx="4" fill="white"/>
</g>
<g opacity="0.1">
<rect x="224.077" width="25" height="30" rx="4" fill="white"/>
</g>
<g opacity="0.1">
<rect x="253.077" width="24" height="30" rx="4" fill="white"/>
</g>
<g opacity="0.1">
<rect x="281.077" width="25" height="30" rx="4" fill="white"/>
</g>
<g opacity="0.1">
<rect x="310.077" width="24" height="30" rx="4" fill="white"/>
</g>
<g opacity="0.1">
<rect x="338.077" width="25" height="30" rx="4" fill="white"/>
</g>
<g opacity="0.1">
<rect x="367.077" width="24" height="30" rx="4" fill="white"/>
</g>
<g opacity="0.1">
<rect x="395.077" width="25" height="30" rx="4" fill="white"/>
</g>
<g opacity="0.1">
<rect x="424.077" width="24" height="30" rx="4" fill="white"/>
</g>
<g opacity="0.1">
<rect x="452.077" width="25" height="30" rx="4" fill="white"/>
</g>
<g opacity="0.1">
<rect x="481.077" width="24" height="30" rx="4" fill="white"/>
</g>
<g opacity="0.1">
<rect x="509.077" width="25" height="30" rx="4" fill="white"/>
</g>
<g opacity="0.1">
<rect x="538.077" width="24" height="30" rx="4" fill="white"/>
</g>
<g opacity="0.1">
<rect x="566.077" width="25" height="30" rx="4" fill="white"/>
</g>
<g opacity="0.1">
<rect x="595.077" width="24" height="30" rx="4" fill="white"/>
</g>
<g opacity="0.1">
<rect x="623.077" width="25" height="30" rx="4" fill="white"/>
</g>
<g opacity="0.1">
<rect x="652.077" width="24" height="30" rx="4" fill="white"/>
</g>
<g opacity="0.1">
<rect x="680.077" width="25" height="30" rx="4" fill="white"/>
</g>
<defs>
<linearGradient id="paint0_linear_13_214" x1="29" y1="15" x2="134.077" y2="15" gradientUnits="userSpaceOnUse">
<stop stop-color="#7D9D3B"/>
<stop offset="1" stop-color="#38BCE2"/>
</linearGradient>
<linearGradient id="paint1_linear_13_214" x1="29" y1="15" x2="134.077" y2="15" gradientUnits="userSpaceOnUse">
<stop stop-color="#7D9D3B"/>
<stop offset="1" stop-color="#38BCE2"/>
</linearGradient>
<linearGradient id="paint2_linear_13_214" x1="29" y1="15" x2="134.077" y2="15" gradientUnits="userSpaceOnUse">
<stop stop-color="#7D9D3B"/>
<stop offset="1" stop-color="#38BCE2"/>
</linearGradient>
<linearGradient id="paint3_linear_13_214" x1="29" y1="15" x2="134.077" y2="15" gradientUnits="userSpaceOnUse">
<stop stop-color="#7D9D3B"/>
<stop offset="1" stop-color="#38BCE2"/>
</linearGradient>
</defs>
</svg>

<svg xmlns="http://www.w3.org/2000/svg" width="706" height="30" fill="none" viewBox="0 0 706 30"><rect width="25" height="30" fill="#7D9D3B" rx="4"/><path fill="#fff" d="M12.9 20.14q-1.05-.014-1.862-.476a4.25 4.25 0 0 1-1.358-1.218 5.8 5.8 0 0 1-.826-1.624 6 6 0 0 1-.266-1.722q0-.896.294-1.792.293-.896.854-1.624.574-.742 1.372-1.176a3.6 3.6 0 0 1 1.792-.448q1.078 0 1.876.476.812.476 1.358 1.232t.812 1.638q.28.882.28 1.694a5.8 5.8 0 0 1-.294 1.806 5.3 5.3 0 0 1-.868 1.61 4.4 4.4 0 0 1-1.358 1.176q-.798.435-1.806.448m-2.366-5.04q.014.588.154 1.176.154.574.434 1.064.294.49.742.798.448.294 1.036.294.63 0 1.078-.322t.728-.826q.293-.504.434-1.078.14-.574.14-1.106 0-.588-.154-1.162a3.6 3.6 0 0 0-.448-1.078 2.4 2.4 0 0 0-.742-.784q-.435-.308-1.036-.308-.615 0-1.064.322-.448.322-.742.826a4.7 4.7 0 0 0-.56 2.184"/><path fill="#fff" fill-opacity="0.1" d="M29 4a4 4 0 0 1 4-4h15.27a4 4 0 0 1 4 4v22a4 4 0 0 1-4 4H33a4 4 0 0 1-4-4z"/><path fill="url(#a)" d="M29 4a4 4 0 0 1 4-4h15.27a4 4 0 0 1 4 4v22a4 4 0 0 1-4 4H33a4 4 0 0 1-4-4z"/><path fill="#fff" fill-opacity="0.1" d="M56.27 4a4 4 0 0 1 4-4h15.268a4 4 0 0 1 4 4v22a4 4 0 0 1-4 4H60.27a4 4 0 0 1-4-4z"/><path fill="url(#b)" d="M56.27 4a4 4 0 0 1 4-4h15.268a4 4 0 0 1 4 4v22a4 4 0 0 1-4 4H60.27a4 4 0 0 1-4-4z"/><path fill="#fff" fill-opacity="0.1" d="M83.539 4a4 4 0 0 1 4-4h15.269a4 4 0 0 1 4 4v22a4 4 0 0 1-4 4h-15.27a4 4 0 0 1-4-4z"/><path fill="url(#c)" d="M83.539 4a4 4 0 0 1 4-4h15.269a4 4 0 0 1 4 4v22a4 4 0 0 1-4 4h-15.27a4 4 0 0 1-4-4z"/><path fill="#fff" fill-opacity="0.1" d="M110.808 4a4 4 0 0 1 4-4h15.269a4 4 0 0 1 4 4v22a4 4 0 0 1-4 4h-15.269a4 4 0 0 1-4-4z"/><path fill="url(#d)" d="M110.808 4a4 4 0 0 1 4-4h15.269a4 4 0 0 1 4 4v22a4 4 0 0 1-4 4h-15.269a4 4 0 0 1-4-4z"/><rect width="25" height="30" x="138.077" fill="#38BCE2" rx="4"/><path fill="#fff" d="M149.629 18.306V20h-5.628v-1.694h1.932v-6.468a1.8 1.8 0 0 1-.378.378q-.252.195-.588.392a4.4 4.4 0 0 1-.672.308 1.8 1.8 0 0 1-.616.126v-1.736q.378 0 .77-.196a4.8 4.8 0 0 0 1.26-.91l.224-.238h1.918v8.344zm5.211 1.834q-1.05-.014-1.862-.476a4.25 4.25 0 0 1-1.358-1.218 5.8 5.8 0 0 1-.826-1.624 6 6 0 0 1-.266-1.722q0-.896.294-1.792a5.4 5.4 0 0 1 .854-1.624 4.35 4.35 0 0 1 1.372-1.176 3.6 3.6 0 0 1 1.792-.448q1.078 0 1.876.476.813.476 1.358 1.232t.812 1.638q.28.882.28 1.694a5.8 5.8 0 0 1-.294 1.806 5.3 5.3 0 0 1-.868 1.61 4.4 4.4 0 0 1-1.358 1.176q-.798.435-1.806.448m-2.366-5.04q.015.588.154 1.176.155.574.434 1.064.294.49.742.798.448.294 1.036.294.63 0 1.078-.322a2.5 2.5 0 0 0 .728-.826q.294-.504.434-1.078a4.45 4.45 0 0 0-.014-2.268 3.5 3.5 0 0 0-.448-1.078 2.4 2.4 0 0 0-.742-.784q-.433-.308-1.036-.308-.615 0-1.064.322-.447.322-.742.826a4.4 4.4 0 0 0-.42 1.078q-.14.574-.14 1.106"/><rect width="25" height="30" x="167.077" fill="#fff" opacity="0.1" rx="4"/><rect width="24" height="30" x="196.077" fill="#fff" opacity="0.1" rx="4"/><rect width="25" height="30" x="224.077" fill="#fff" opacity="0.1" rx="4"/><rect width="24" height="30" x="253.077" fill="#fff" opacity="0.1" rx="4"/><rect width="25" height="30" x="281.077" fill="#fff" opacity="0.1" rx="4"/><rect width="24" height="30" x="310.077" fill="#fff" opacity="0.1" rx="4"/><rect width="25" height="30" x="338.077" fill="#fff" opacity="0.1" rx="4"/><rect width="24" height="30" x="367.077" fill="#fff" opacity="0.1" rx="4"/><rect width="25" height="30" x="395.077" fill="#fff" opacity="0.1" rx="4"/><rect width="24" height="30" x="424.077" fill="#fff" opacity="0.1" rx="4"/><rect width="25" height="30" x="452.077" fill="#fff" opacity="0.1" rx="4"/><rect width="24" height="30" x="481.077" fill="#fff" opacity="0.1" rx="4"/><rect width="25" height="30" x="509.077" fill="#fff" opacity="0.1" rx="4"/><rect width="24" height="30" x="538.077" fill="#fff" opacity="0.1" rx="4"/><rect width="25" height="30" x="566.077" fill="#fff" opacity="0.1" rx="4"/><rect width="24" height="30" x="595.077" fill="#fff" opacity="0.1" rx="4"/><rect width="25" height="30" x="623.077" fill="#fff" opacity="0.1" rx="4"/><rect width="24" height="30" x="652.077" fill="#fff" opacity="0.1" rx="4"/><rect width="25" height="30" x="680.077" fill="#fff" opacity="0.1" rx="4"/><defs><linearGradient id="a" x1="29" x2="134.077" y1="15" y2="15" gradientUnits="userSpaceOnUse"><stop stop-color="#7D9D3B"/><stop offset="1" stop-color="#38BCE2"/></linearGradient><linearGradient id="b" x1="29" x2="134.077" y1="15" y2="15" gradientUnits="userSpaceOnUse"><stop stop-color="#7D9D3B"/><stop offset="1" stop-color="#38BCE2"/></linearGradient><linearGradient id="c" x1="29" x2="134.077" y1="15" y2="15" gradientUnits="userSpaceOnUse"><stop stop-color="#7D9D3B"/><stop offset="1" stop-color="#38BCE2"/></linearGradient><linearGradient id="d" x1="29" x2="134.077" y1="15" y2="15" gradientUnits="userSpaceOnUse"><stop stop-color="#7D9D3B"/><stop offset="1" stop-color="#38BCE2"/></linearGradient></defs></svg>
